X: 32
M:2/4
L:1/16
K:G
u(AB)|
.c2(ec) .B2(dB) | {B}AGAB AGEF | GAGE DEGB | {B}AGAB AGEB |
.c2(ec) .B2(dB) | {B}AGAB AGEF | GAGE DEGA | BGAF G2     ::
uD2|
{a}gfge dBGB |    cABG AGEF |  GAGE  DEGA     |    BGAF G2     :|


